!! 00000] TT[WS
!!!OTL: Yeng xinchun
!!!ARE: Asia, China, Shanxi Datong
!! Ethnic Group: Han
!! WI, 228 (2)
!!!SCT: J0273
!!!YEM: Copyright 1995, estate of Helmut Schaffrath.
**kern
*ICvox
*Ivox
*M2/4
*k[f#c#g#]
*A:
{8a
4a
8b
=1
4ee
8cc#
8b
=2
8a
4a
8cc#
=3
2b}
=4
{4.e
8f#
=5
4a
4b
=6
8.cc#
16b
8a
8f#
=7
8a
4.f#}
=8
{4cc#
8cc#
8ee
=9
8cc#
8b
4a
=10
8a
4a
8b
=11
8f#
16e
16f#
4a}
=12
{8.ee
16cc#
4ee
=13
8r
8aa
8ff#
8ee
=14
8cc#
8b
8cc#
8ee
=15
4.a}
{8b
=16
8g#
8f#
8.e
16f#
=17
4a
4b
=18
8g#
8f#
[4e
=19
4e]
4r}
==
!!!AGN: Xiaodiao. Fengsuge
!!!ONB: ESAC (Essen Associative Code) Database: CHINA
!!!AMT: simple duple
!!!AIN: vox
!!!EED: Helmut Schaffrath
!!!EEV: 1.0
*-
!!!ONB: Tied note syntax fixed by Craig Sapp, 2004/05/03/
